src/pos-icons/finance.svg

<svg height="24" viewBox="0 0 24 24" width="24" xmlns="http://www.w3.org/2000/svg"><path d="m6 16.5-3 2.94v-8.44h3m5 3.66-1.57-1.34-1.43 1.32v-7.64h3m5 6-3 3v-13h3m2.81 9.81-1.81-1.81h5v5l-1.79-1.79-7.21 7.15-3.47-3.02-3.78 3.66h-2.75l6.47-6.34 3.53 2.98"/></svg>

<?xml version="1.0" encoding="UTF-8"?><!DOCTYPE svg PUBLIC "-//W3C//DTD SVG 1.1//EN" "http://www.w3.org/Graphics/SVG/1.1/DTD/svg11.dtd"><svg xmlns="http://www.w3.org/2000/svg" xmlns:xlink="http://www.w3.org/1999/xlink" version="1.1" id="mdi-finance" width="24" height="24" viewBox="0 0 24 24"><path d="M6,16.5L3,19.44V11H6M11,14.66L9.43,13.32L8,14.64V7H11M16,13L13,16V3H16M18.81,12.81L17,11H22V16L20.21,14.21L13,21.36L9.53,18.34L5.75,22H3L9.47,15.66L13,18.64" /></svg>
